X:1
T:Title
%%score { ( 1 3 ) | 2 }
L:1/8
M:2/4
K:Ab
V:1 treble nm="Grand Piano"
V:3 treble 
V:2 bass 
V:1
 z2 z[Q:1/4=90] [CE] | [CE][Ec] [Ec]>[Ec] | [Ec] [Ec]2 [Ec] | cB B>c |[M:3/8] d3 |[M:1/8] E | %6
[M:2/4] E[Gd] [Gd]>[Gd] | [Gd] [Gd]2 [Gd] | [Ae][Ae] [Ae]>[Ed] |[M:3/8] [Ec]3 |[M:1/8] [CE] | %11
[M:2/4] [CE][Ec] [Ec]>[Ec] | [Ec] e2 e | e[Fd] [Fd]>[Fd] |[M:3/8] [Fd]3 |[M:1/8] [Fd] | %16
[M:2/4] [Ec][Ec] [Ec]>[Ec] | [Fe] [Fd]2 [FB] | AG c>B |[M:3/8] [CEA]3 |[M:1/8] E |[M:2/4] c4 | d4 | %23
 e>e e>d | c e2 E | c4 | d4 | %27
 [Ae][Gd] [EAc][DEB][Q:1/4=89][Q:1/4=87][Q:1/4=86][Q:1/4=84][Q:1/4=83][Q:1/4=82][Q:1/4=80][Q:1/4=79][Q:1/4=77][Q:1/4=76][Q:1/4=75][Q:1/4=73][Q:1/4=72][Q:1/4=70][Q:1/4=69] | %28
[M:3/8] [CEA]3 |] %29
V:2
 z2 z [A,,A,] | [A,,A,][A,,A,] [A,,A,]>[A,,A,] | [A,,A,] [A,,A,]2 [A,,A,] | %3
 [E,A,E][E,G,E] [E,G,E]>[E,A,E] |[M:3/8] [E,G,E]3 |[M:1/8] [E,G,] | %6
[M:2/4] [E,G,][E,B,] [E,B,]>[E,B,] | [E,B,] [E,B,]2 [E,B,] | [E,C][E,C] [E,C]>[E,B,] | %9
[M:3/8] [A,,A,]3 |[M:1/8] [A,,A,] |[M:2/4] [A,,A,][A,,A,] [A,,A,]>[A,,A,] | %12
 [A,,A,] [A,,CA]2 [A,,CA] | [A,,CA][D,A,] [D,A,]>[D,A,] |[M:3/8] [D,A,]3 |[M:1/8] [D,A,] | %16
[M:2/4] [A,,A,][A,,A,] [A,,A,]>[A,,A,] | [D,A,] [D,A,]2 [D,D] | [E,CE][E,B,E] [E,E]>[E,DE] | %19
[M:3/8] A,,3 |[M:1/8] z |[M:2/4] z [A,,A,] .[A,,A,]2 | z [E,B,] [E,B,][G,D] | %23
 [A,CA]>[A,CA] [A,CA]>[A,B,A] | [A,A] .[A,CA]3 | z[K:bass] [A,,A,] .[A,,A,]2 | %26
 z [D,A,] [D,A,][A,,A,] | [E,C][E,B,] E,E, |[M:3/8] A,,3 |] %29
V:3
 x4 | x4 | x4 | x4 |[M:3/8] x3 |[M:1/8] x |[M:2/4] x4 | x4 | x4 |[M:3/8] x3 |[M:1/8] x | %11
[M:2/4] x4 | x4 | x4 |[M:3/8] x3 |[M:1/8] x |[M:2/4] x4 | x4 | x4 |[M:3/8] x3 |[M:1/8] x | %21
[M:2/4] z E EE | z G GE | x4 | x4 | z E EE | z F F[Ec] | x4 |[M:3/8] x3 |] %29

